svg/blobs-icons/no-decorations/tea-cup.svg

<svg xmlns="http://www.w3.org/2000/svg" xmlns:xlink="http://www.w3.org/1999/xlink" preserveAspectRatio="xMidYMid" width="203" height="218" viewBox="0 0 203 218"><defs><style>.cls-3{fill:#ff3a2f}.cls-4{fill:#000;opacity:.25}.cls-5{fill:#142a3b}.cls-6{fill:#000;opacity:.35}.cls-7{fill:#fbb713}.cls-12{fill:#fff}</style></defs><g id="group-3svg"><path d="M-.01-.002s0 183.826.0 183.826c0 16.443 16.492 33.166 27.831 33.166H128.748c11.339.0 23.234-16.723 23.234-33.166V-.002S-.01-.002-.01-.002z" id="path-1" class="cls-3" fill-rule="evenodd"/><path d="M130.518.378s0 174.487.0 174.487c0 16.441-12.928 32.789-24.266 32.789L11.809 208.03c3.747 4 10.298 9.06 15.456 9.06H128.748c11.339.0 23.361-17.147 23.361-33.588V.378s-21.591.0-21.591.0z" id="path-2" class="cls-4" fill-rule="evenodd"/><path d="M104.984 71.995s-6.999.0-6.999.0.0-71.997.0-71.997 6.999.0 6.999.0.0 71.997.0 71.997z" id="path-3" class="cls-5" fill-rule="evenodd"/><path d="M115.984 89.995s-7 0-7 0 0-89.997.0-89.997 7 0 7 0 0 89.997.0 89.997z" id="path-4" class="cls-6" fill-rule="evenodd"/><path d="M126.983 126.994s-50.997.0-50.997.0.0-54.999.0-54.999 50.997.0 50.997.0.0 54.999.0 54.999z" id="path-5" class="cls-7" fill-rule="evenodd"/><path d="M127.258 84.204s0 42.441.0 42.441-38.863.0-38.863.0.0 13.696.0 13.696 51.818.0 51.818.0.0-56.137.0-56.137-12.955.0-12.955.0z" id="path-6" class="cls-6" fill-rule="evenodd"/><path d="M151.982 162.992s12.898.0 12.898.0 24.107.0 24.107.0c9.13.0 13.992-7.74099999999999 13.992-16.871V42.25C202.979 33.12 198.117 24.996 188.987 24.996H164.88s-12.898.0-12.898.0.0 22 0 22 12.52.0 12.52.0S167.237 46.996 167.237 46.996c9.131.0 13.743 10.52 13.743 19.65v55.078c0 9.13099999999999-4.612 15.269-13.743 15.269H164.502s-12.52.0-12.52.0.0 25.999.0 25.999z" id="path-7" class="cls-3" fill-rule="evenodd"/><path d="M162.99 138.067S152.109 137.938 152.109 137.938s0 24.995.0 24.995 11.259.0 11.259.0 8.285.0 8.285.0S172.501 137.035 172.501 137.035C170.68 137.815 167.849 138.067 165.725 138.067H162.99z" id="path-8" class="cls-6" fill-rule="evenodd"/><path d="M152.109 25.457s0 20.83.0 20.83S160.283 46.287 160.283 46.287 163.017 46.287 163.017 46.287c2.124.0 4.22.0 5.929.139000000000003V25.457s-8.286.0-8.286.0S152.109 25.457 152.109 25.457z" id="path-9" class="cls-6" fill-rule="evenodd"/><path d="M22.275 175.883C20.279 175.883 18.66 174.265 18.66 172.269V37.729c0-1.997 1.619-3.615 3.615-3.615 1.996.0 3.615 1.618 3.615 3.615v134.54c0 1.99599999999998-1.619 3.614-3.615 3.614z" id="path-10" class="cls-12" fill-rule="evenodd"/></g></svg>

<svg xmlns="http://www.w3.org/2000/svg" xmlns:xlink="http://www.w3.org/1999/xlink" preserveAspectRatio="xMidYMid" width="203" height="218" viewBox="0 0 203 218">
  <defs>
    <style>

      .cls-3 {
        fill: #ff3a2f;
      }

      .cls-4 {
        fill: #000000;
        opacity: 0.25;
      }

      .cls-5 {
        fill: #142a3b;
      }

      .cls-6 {
        fill: #000000;
        opacity: 0.35;
      }

      .cls-7 {
        fill: #fbb713;
      }

      .cls-12 {
        fill: #ffffff;
      }
    </style>
  </defs>
  <g id="group-3svg">
    <path d="M-0.010,-0.002 C-0.010,-0.002 -0.010,183.824 -0.010,183.824 C-0.010,200.267 16.482,216.990 27.821,216.990 C27.821,216.990 128.748,216.990 128.748,216.990 C140.087,216.990 151.982,200.267 151.982,183.824 C151.982,183.824 151.982,-0.002 151.982,-0.002 C151.982,-0.002 -0.010,-0.002 -0.010,-0.002 Z" id="path-1" class="cls-3" fill-rule="evenodd"/>
    <path d="M130.518,0.378 C130.518,0.378 130.518,174.865 130.518,174.865 C130.518,191.306 117.590,207.654 106.252,207.654 C106.252,207.654 11.809,208.030 11.809,208.030 C15.556,212.030 22.107,217.090 27.265,217.090 C27.265,217.090 128.748,217.090 128.748,217.090 C140.087,217.090 152.109,199.943 152.109,183.502 C152.109,183.502 152.109,0.378 152.109,0.378 C152.109,0.378 130.518,0.378 130.518,0.378 Z" id="path-2" class="cls-4" fill-rule="evenodd"/>
    <path d="M104.984,71.995 C104.984,71.995 97.985,71.995 97.985,71.995 C97.985,71.995 97.985,-0.002 97.985,-0.002 C97.985,-0.002 104.984,-0.002 104.984,-0.002 C104.984,-0.002 104.984,71.995 104.984,71.995 Z" id="path-3" class="cls-5" fill-rule="evenodd"/>
    <path d="M115.984,89.995 C115.984,89.995 108.984,89.995 108.984,89.995 C108.984,89.995 108.984,-0.002 108.984,-0.002 C108.984,-0.002 115.984,-0.002 115.984,-0.002 C115.984,-0.002 115.984,89.995 115.984,89.995 Z" id="path-4" class="cls-6" fill-rule="evenodd"/>
    <path d="M126.983,126.994 C126.983,126.994 75.986,126.994 75.986,126.994 C75.986,126.994 75.986,71.995 75.986,71.995 C75.986,71.995 126.983,71.995 126.983,71.995 C126.983,71.995 126.983,126.994 126.983,126.994 Z" id="path-5" class="cls-7" fill-rule="evenodd"/>
    <path d="M127.258,84.204 C127.258,84.204 127.258,126.645 127.258,126.645 C127.258,126.645 88.395,126.645 88.395,126.645 C88.395,126.645 88.395,140.341 88.395,140.341 C88.395,140.341 140.213,140.341 140.213,140.341 C140.213,140.341 140.213,84.204 140.213,84.204 C140.213,84.204 127.258,84.204 127.258,84.204 Z" id="path-6" class="cls-6" fill-rule="evenodd"/>
    <path d="M151.982,162.992 C151.982,162.992 164.880,162.992 164.880,162.992 C164.880,162.992 188.987,162.992 188.987,162.992 C198.117,162.992 202.979,155.251 202.979,146.121 C202.979,146.121 202.979,42.250 202.979,42.250 C202.979,33.120 198.117,24.996 188.987,24.996 C188.987,24.996 164.880,24.996 164.880,24.996 C164.880,24.996 151.982,24.996 151.982,24.996 C151.982,24.996 151.982,46.996 151.982,46.996 C151.982,46.996 164.502,46.996 164.502,46.996 C164.502,46.996 167.237,46.996 167.237,46.996 C176.368,46.996 180.980,57.516 180.980,66.646 C180.980,66.646 180.980,121.724 180.980,121.724 C180.980,130.855 176.368,136.993 167.237,136.993 C167.237,136.993 164.502,136.993 164.502,136.993 C164.502,136.993 151.982,136.993 151.982,136.993 C151.982,136.993 151.982,162.992 151.982,162.992 Z" id="path-7" class="cls-3" fill-rule="evenodd"/>
    <path d="M162.990,138.067 C162.990,138.067 152.109,137.938 152.109,137.938 C152.109,137.938 152.109,162.933 152.109,162.933 C152.109,162.933 163.368,162.933 163.368,162.933 C163.368,162.933 171.653,162.933 171.653,162.933 C171.653,162.933 172.501,137.035 172.501,137.035 C170.680,137.815 167.849,138.067 165.725,138.067 C165.725,138.067 162.990,138.067 162.990,138.067 Z" id="path-8" class="cls-6" fill-rule="evenodd"/>
    <path d="M152.109,25.457 C152.109,25.457 152.109,46.287 152.109,46.287 C152.109,46.287 160.283,46.287 160.283,46.287 C160.283,46.287 163.017,46.287 163.017,46.287 C165.141,46.287 167.237,46.287 168.946,46.426 C168.946,46.426 168.946,25.457 168.946,25.457 C168.946,25.457 160.660,25.457 160.660,25.457 C160.660,25.457 152.109,25.457 152.109,25.457 Z" id="path-9" class="cls-6" fill-rule="evenodd"/>
    <path d="M22.275,175.883 C20.279,175.883 18.660,174.265 18.660,172.269 C18.660,172.269 18.660,37.729 18.660,37.729 C18.660,35.732 20.279,34.114 22.275,34.114 C24.271,34.114 25.890,35.732 25.890,37.729 C25.890,37.729 25.890,172.269 25.890,172.269 C25.890,174.265 24.271,175.883 22.275,175.883 Z" id="path-10" class="cls-12" fill-rule="evenodd"/>
  </g>
</svg>
